dist/svgs/crypto-icons/icons/eth.svg

<?xml version="1.0" encoding="UTF-8" standalone="yes"?>
<svg xmlns="http://www.w3.org/2000/svg" xmlns:xlink="http://www.w3.org/1999/xlink" width="512px" height="512px" viewBox="0 0 384 384" version="1.1">
  <g id="surface1">
    <path style=" stroke:none;fill-rule:nonzero;fill:rgb(0%,0%,0%);fill-opacity:1;" d="M 190.398438 265.585938 L 190.398438 147.132812 L 74.699219 197.8125 Z M 190.398438 138.988281 L 190.398438 -0.09375 L 78.425781 188.035156 Z M 197.855469 -0.152344 L 197.855469 138.988281 L 311.398438 188.726562 Z M 197.855469 147.132812 L 197.855469 265.589844 L 313.636719 197.847656 Z M 190.398438 384.6875 L 190.398438 289.414062 L 75.476562 222.128906 Z M 197.855469 384.6875 L 312.777344 222.128906 L 197.855469 289.414062 Z M 197.855469 384.6875 "/>
  </g>
</svg>

<svg xmlns="http://www.w3.org/2000/svg" viewBox="0 0 384 384"><path d="M190.398 265.586V147.133L74.7 197.813zm0-126.598V-.094L78.426 188.036zm7.457-139.14v139.14l113.543 49.739zm0 147.285V265.59l115.782-67.742zm-7.457 237.554v-95.273L75.477 222.13zm7.457 0L312.777 222.13l-114.922 67.285zm0 0"/></svg>
